icon-themes/breeze_svg/cmd/lc_extrusiontiltleft.svg

<svg viewBox="0 0 24 24" xmlns="http://www.w3.org/2000/svg"><path d="m8.4355469 5-3.2519531 3.28125-.1835938.21875.1835938.21875 3.2519531 3.28125.6757812-.71875-2.2402343-2.28125h2.2402343.8886719v-1h-.8886719-2.2402343l2.2402343-2.28125zm4.0644531 3a.5.5 0 0 0 -.5.5.5.5 0 0 0 .5.5.5.5 0 0 0 .5-.5.5.5 0 0 0 -.5-.5zm3 0c-.277 0-.5.223-.5.5s.223.5.5.5.5-.223.5-.5-.223-.5-.5-.5zm3 2c-.277 0-.5.223-.5.5s.223.5.5.5.5-.223.5-.5-.223-.5-.5-.5zm1 3c-.277 0-.5.223-.5.5s.223.5.5.5.5-.223.5-.5-.223-.5-.5-.5zm-1 3c-.277 0-.5.223-.5.5s.223.5.5.5.5-.223.5-.5-.223-.5-.5-.5zm-3 2c-.277 0-.5.223-.5.5s.223.5.5.5.5-.223.5-.5-.223-.5-.5-.5z" fill="#4d4d4d"/><path d="m12 4v16h1v-16z" fill="#1d99f3"/></svg>

<svg xmlns="http://www.w3.org/2000/svg" viewBox="0 0 24 24">
 <path 
     style="fill:#4d4d4d" 
     d="M 8.4355469 5 L 5.1835938 8.28125 L 5 8.5 L 5.1835938 8.71875 L 8.4355469 12 L 9.1113281 11.28125 L 6.8710938 9 L 9.1113281 9 L 10 9 L 10 8 L 9.1113281 8 L 6.8710938 8 L 9.1113281 5.71875 L 8.4355469 5 z M 12.5 8 A 0.5 0.5 0 0 0 12 8.5 A 0.5 0.5 0 0 0 12.5 9 A 0.5 0.5 0 0 0 13 8.5 A 0.5 0.5 0 0 0 12.5 8 z M 15.5 8 C 15.223 8 15 8.223 15 8.5 C 15 8.777 15.223 9 15.5 9 C 15.777 9 16 8.777 16 8.5 C 16 8.223 15.777 8 15.5 8 z M 18.5 10 C 18.223 10 18 10.223 18 10.5 C 18 10.777 18.223 11 18.5 11 C 18.777 11 19 10.777 19 10.5 C 19 10.223 18.777 10 18.5 10 z M 19.5 13 C 19.223 13 19 13.223 19 13.5 C 19 13.777 19.223 14 19.5 14 C 19.777 14 20 13.777 20 13.5 C 20 13.223 19.777 13 19.5 13 z M 18.5 16 C 18.223 16 18 16.223 18 16.5 C 18 16.777 18.223 17 18.5 17 C 18.777 17 19 16.777 19 16.5 C 19 16.223 18.777 16 18.5 16 z M 15.5 18 C 15.223 18 15 18.223 15 18.5 C 15 18.777 15.223 19 15.5 19 C 15.777 19 16 18.777 16 18.5 C 16 18.223 15.777 18 15.5 18 z "
     />
 <path 
     style="fill:#1d99f3" 
     d="M 12 4 L 12 20 L 13 20 L 13 4 L 12 4 z "
     />
 </svg>
